public/images/circle-discord.svg

<svg width="60" height="60" viewBox="0 0 60 60" fill="none" xmlns="http://www.w3.org/2000/svg">
<path d="M30.1826 59.2434C46.475 59.2434 59.6826 46.0358 59.6826 29.7434C59.6826 13.451 46.475 0.243408 30.1826 0.243408C13.8902 0.243408 0.682617 13.451 0.682617 29.7434C0.682617 46.0358 13.8902 59.2434 30.1826 59.2434Z" fill="#00C3CD"/>
<path d="M41.3628 19.5634C41.3628 19.5634 41.3428 19.5334 41.3228 19.5234C39.2428 18.5634 37.0428 17.8834 34.7828 17.4934C34.7428 17.4934 34.7028 17.5034 34.6728 17.5434C34.3728 18.0834 34.1028 18.6434 33.8628 19.2134C31.4228 18.8434 28.9528 18.8434 26.5128 19.2134C26.2728 18.6434 25.9928 18.0834 25.6828 17.5434C25.6628 17.5034 25.6228 17.4834 25.5728 17.4934C23.3128 17.8834 21.1128 18.5634 19.0328 19.5234C19.0128 19.5234 19.0028 19.5434 18.9928 19.5634C14.8228 25.7834 13.6828 31.8534 14.2428 37.8534C14.2428 37.8834 14.2628 37.9134 14.2828 37.9334C16.7128 39.7334 19.4228 41.1034 22.3128 41.9834C22.3528 41.9934 22.4028 41.9834 22.4228 41.9434C23.0428 41.1034 23.5928 40.2034 24.0628 39.2734C24.0928 39.2234 24.0628 39.1634 24.0228 39.1334C24.0228 39.1334 24.0228 39.1334 24.0128 39.1334C23.1428 38.8034 22.3128 38.4034 21.5028 37.9434C21.4528 37.9134 21.4328 37.8534 21.4628 37.8034C21.4628 37.7934 21.4828 37.7834 21.4928 37.7734C21.6628 37.6434 21.8328 37.5134 21.9928 37.3834C22.0228 37.3634 22.0628 37.3534 22.0928 37.3734C27.3528 39.7734 33.0428 39.7734 38.2428 37.3734C38.2728 37.3534 38.3228 37.3634 38.3528 37.3834C38.5128 37.5134 38.6828 37.6534 38.8528 37.7734C38.9028 37.8034 38.9028 37.8734 38.8728 37.9134C38.8728 37.9234 38.8528 37.9334 38.8428 37.9434C38.0428 38.4134 37.2028 38.8134 36.3328 39.1334C36.2828 39.1534 36.2528 39.2134 36.2728 39.2634C36.2728 39.2634 36.2728 39.2634 36.2728 39.2734C36.7528 40.2034 37.3028 41.0934 37.9128 41.9434C37.9428 41.9834 37.9828 41.9934 38.0228 41.9834C40.9128 41.1034 43.6328 39.7234 46.0628 37.9334C46.0828 37.9134 46.1028 37.8934 46.1028 37.8634C46.7728 30.9334 44.9828 24.9134 41.3528 19.5734L41.3628 19.5634ZM24.8528 34.1934C23.2728 34.1934 21.9628 32.7434 21.9628 30.9534C21.9628 29.1634 23.2428 27.7134 24.8528 27.7134C26.4628 27.7134 27.7628 29.1834 27.7428 30.9534C27.7428 32.7334 26.4628 34.1934 24.8528 34.1934ZM35.5328 34.1934C33.9528 34.1934 32.6428 32.7434 32.6428 30.9534C32.6428 29.1634 33.9228 27.7134 35.5328 27.7134C37.1428 27.7134 38.4428 29.1834 38.4228 30.9534C38.4228 32.7334 37.1528 34.1934 35.5328 34.1934Z" fill="white"/>
</svg>

<svg fill="none" height="60" viewBox="0 0 60 60" width="60" xmlns="http://www.w3.org/2000/svg"><path d="m30.1826 59.2434c16.2924 0 29.5-13.2076 29.5-29.5s-13.2076-29.499992-29.5-29.499992-29.499983 13.207592-29.499983 29.499992 13.207583 29.5 29.499983 29.5z" fill="#00c3cd"/><path d="m41.3628 19.5634s-.02-.03-.04-.04c-2.08-.96-4.28-1.64-6.54-2.03-.04 0-.08.01-.11.05-.3.54-.57 1.1-.81 1.67-2.44-.37-4.91-.37-7.35 0-.24-.57-.52-1.13-.83-1.67-.02-.04-.06-.06-.11-.05-2.26.39-4.46 1.07-6.54 2.03-.02 0-.03.02-.04.04-4.17 6.22-5.31 12.29-4.75 18.29 0 .03.02.06.04.08 2.43 1.8 5.14 3.17 8.03 4.05.04.01.09 0 .11-.04.62-.84 1.17-1.74 1.64-2.67.03-.05 0-.11-.04-.14 0 0 0 0-.01 0-.87-.33-1.7-.73-2.51-1.19-.05-.03-.07-.09-.04-.14 0-.01.02-.02.03-.03.17-.13.34-.26.5-.39.03-.02.07-.03.1-.01 5.26 2.4 10.95 2.4 16.15 0 .03-.02.08-.01.11.01.16.13.33.27.5.39.05.03.05.1.02.14 0 .01-.02.02-.03.03-.8.47-1.64.87-2.51 1.19-.05.02-.08.08-.06.13v.01c.48.93 1.03 1.82 1.64 2.67.03.04.07.05.11.04 2.89-.88 5.61-2.26 8.04-4.05.02-.02.04-.04.04-.07.67-6.93-1.12-12.95-4.75-18.29zm-16.51 14.63c-1.58 0-2.89-1.45-2.89-3.24s1.28-3.24 2.89-3.24 2.91 1.47 2.89 3.24c0 1.78-1.28 3.24-2.89 3.24zm10.68 0c-1.58 0-2.89-1.45-2.89-3.24s1.28-3.24 2.89-3.24 2.91 1.47 2.89 3.24c0 1.78-1.27 3.24-2.89 3.24z" fill="#fff"/></svg>
